static/logos/avo-wordmark-color.svg

<svg width="74" height="26" viewBox="0 0 74 26" fill="none" xmlns="http://www.w3.org/2000/svg">
<g clip-path="url(#clip0_1_3450)">
<path fill-rule="evenodd" clip-rule="evenodd" d="M2.64172 12.9878C2.64172 7.30001 7.21665 2.67264 12.8392 2.67264C18.4625 2.67264 23.0371 7.30001 23.0371 12.9878C23.0371 18.6757 18.4625 23.3034 12.8392 23.3034C7.21665 23.3034 2.64172 18.6757 2.64172 12.9878ZM0 12.9877C0 20.1493 5.75971 25.9755 12.8392 25.9755C19.9195 25.9755 25.6792 20.1493 25.6792 12.9877C25.6792 5.82618 19.9195 0 12.8392 0C5.75971 0 0 5.82618 0 12.9877ZM49.5793 0.016403H46.7598L38.5461 21.7558L30.3145 0.016403H27.4769L37.3121 25.9746H38.5461H39.78L49.5793 0.016403ZM61.1605 2.6951C55.5379 2.6951 50.9629 7.32283 50.9629 13.0103C50.9629 18.6982 55.5379 23.3259 61.1605 23.3259C66.7834 23.3259 71.358 18.6982 71.358 13.0103C71.358 7.32283 66.7834 2.6951 61.1605 2.6951ZM61.1605 25.9985C54.081 25.9985 48.3209 20.1719 48.3209 13.0104C48.3209 5.84914 54.081 0.0225911 61.1605 0.0225911C68.2403 0.0225911 74 5.84914 74 13.0104C74 20.1719 68.2403 25.9985 61.1605 25.9985Z" fill="black"/>
<path fill-rule="evenodd" clip-rule="evenodd" d="M22.2812 26H26.2442V0H22.2812V26Z" fill="#EC008C"/>
</g>
<defs>
<clipPath id="clip0_1_3450">
<rect width="74" height="26" fill="white"/>
</clipPath>
</defs>
</svg>

<svg xmlns="http://www.w3.org/2000/svg" width="182.154" height="64" fill="none" viewBox="0 0 74 26"><g fill-rule="evenodd" clip-path="url(#a)" clip-rule="evenodd"><path fill="#000" d="M2.642 12.988c0-5.688 4.575-10.315 10.197-10.315 5.623 0 10.198 4.627 10.198 10.315S18.462 23.303 12.84 23.303c-5.622 0-10.197-4.627-10.197-10.315Zm-2.642 0c0 7.161 5.76 12.988 12.84 12.988s12.84-5.827 12.84-12.988C25.68 5.826 19.92 0 12.84 0S0 5.826 0 12.988ZM49.58.016h-2.82l-8.214 21.74L30.314.016h-2.837l9.835 25.959h2.468L49.58.016Zm11.58 2.68c-5.622 0-10.197 4.627-10.197 10.314 0 5.688 4.575 10.316 10.197 10.316 5.623 0 10.198-4.628 10.198-10.316 0-5.687-4.575-10.315-10.198-10.315Zm0 23.302c-7.079 0-12.84-5.826-12.84-12.988C48.32 5.85 54.082.023 61.16.023 68.24.023 74 5.849 74 13.01 74 20.172 68.24 26 61.16 26Z"/><path fill="#EC008C" d="M22.281 26h3.963V0h-3.963v26Z"/></g><defs><clipPath id="a"><path fill="#fff" d="M0 0h74v26H0z"/></clipPath></defs></svg>
